src/icons/svg/DigitalMarketingAnalyticsApp.svg

<svg width="24" height="24" viewBox="0 0 24 24" fill="none" xmlns="http://www.w3.org/2000/svg">
<path d="M11.8159 8.102H4.13594C3.62694 8.102 3.13794 8.304 2.77794 8.664C2.41794 9.024 2.21594 9.512 2.21594 10.022V13.862C2.21594 14.371 2.41794 14.86 2.77794 15.22C3.13794 15.58 3.62594 15.782 4.13594 15.782H5.09594V19.622C5.09594 19.877 5.19694 20.121 5.37694 20.301C5.55694 20.481 5.80094 20.582 6.05594 20.582H7.97594C8.23094 20.582 8.47494 20.481 8.65494 20.301C8.83494 20.121 8.93594 19.877 8.93594 19.622V15.782H11.8159L16.6159 19.622V4.262L11.8159 8.102V8.102ZM14.6959 15.398L12.7759 13.862H4.13594V10.022H12.7759L14.6959 8.486V15.398ZM20.9359 11.942C20.9359 13.584 20.0139 15.072 18.5359 15.782V8.102C20.0049 8.822 20.9359 10.31 20.9359 11.942Z" fill="#1C2125"/>
</svg>

<!-- Generated by IcoMoon.io -->
<svg version="1.1" xmlns="http://www.w3.org/2000/svg" width="24" height="24" viewBox="0 0 24 24">
<title>digital-marketing-analytics-app</title>
<path fill="#444" d="M11.816 8.102h-7.68c-0.509 0-0.998 0.202-1.358 0.562s-0.562 0.848-0.562 1.358v3.84c0 0.509 0.202 0.998 0.562 1.358s0.848 0.562 1.358 0.562h0.96v3.84c0 0.255 0.101 0.499 0.281 0.679s0.424 0.281 0.679 0.281h1.92c0.255 0 0.499-0.101 0.679-0.281s0.281-0.424 0.281-0.679v-3.84h2.88l4.8 3.84v-15.36l-4.8 3.84zM14.696 15.398l-1.92-1.536h-8.64v-3.84h8.64l1.92-1.536v6.912zM20.936 11.942c0 1.642-0.922 3.13-2.4 3.84v-7.68c1.469 0.72 2.4 2.208 2.4 3.84z"></path>
</svg>
